X:1
T:We All Can Do Something for Jesus
T:We All Can Do Something for Jesus
T:William Howard Doane
T:Frances Janes (Fanny) Crosby, 1868
T:Public Domain Courtesy of the Cyber Hymnal™
T:Public Domain Courtesy of the Cyber Hymnal™
C:William Howard Doane
Z:Public Domain
Z:Courtesy of the Cyber Hymnal™
%%score ( 1 2 ) ( 3 4 )
L:1/8
Q:1/4=85
M:6/8
K:Bb
V:1 treble 
V:2 treble 
V:3 bass 
V:4 bass 
V:1
 ([DB]/[Ec]/) | [Fd][Fd][Fd] [Ge][Fd][Ec] | [EB][EB][EG] [GB]2 [EG] | [DF][DB][DB] [DB][EA][FB] | %4
w: 1.~Our *|school is a vine- yard, a|gar- den of truth, Where|all can do some- thing for|
w: 2.~A *|word to the err- ing, of|kind- ness and love, May|oft- en re- mind them of|
w: 3.~Oh! *|sweet- er, far sweet- er, than|rich- es or fame, To|feel we are work- ing for|
 [Fd]3 [Fc]2 ([DB]/[Ec]/) | [Fd][Fd][Fd] [Ge][Fd][Ec] | [EB][EB][EG] [GB]2 [EG] | %7
w: Je- sus; And *|though we are just in the|morn- ing of youth, We|
w: Je- sus; A *|song of our beau- ti- ful|man- sion a- bove, May|
w: Je- sus; The *|cup of cold wa- ter we|give in His Name, Will|
 [DF][DB][Fd] [Ec][DB][Fd] | [Ec]3 [DB]2 [DB] | [CA][Ec][Ec] [Ec][Ec][Ec] | %10
w: all can do some- thing for|Je- sus; The|deep, roll- ing riv- er that|
w: lead a poor wand- ’rer to|Je- sus; The|a- corn, when plant- ed, though|
w: bring us the bless- ings of|Je- sus; The|brook and the a- corn, the|
 [DB][Fd][Fd] [Fd]2 [Fd] | [Ge][Fd][Fd] [Fd][Ec][DB] | [Fd][Fc][Fc] !fermata![Fc]2 ([DB]/[Ec]/) | %13
w: flows to the sea Is|made of the brook- let that|spark- les so free; A *|
w: small it may be, How|quick- ly it grows to a|wide spread- ing tree; A *|
w: leaf and the tree Are|teach- ing a les- son to|you and to me; No *|
 [Fd][Fd][Fd] [Ge][Fd][Ec] | [EB][EB][EG] [GB]2 [EG] | [DF][DB][Fd] [Ec] x2 | [DB][Fd] x3 | %17
w: les- son, dear child- ren, for|you and for me, We|all can do some-|thing for|
w: les- son, dear child- ren, for|you and for me, We|all can do some-|thing for|
w: mat- ter how sim- ple the|ef- fort may be, We|all can do some-|thing for|
 [Ec]3 [DB]2 ||"^Refrain" [DF] x5 | [DF][DF][DF] [DF][DB][Ec] | [Fd]3 [FB]3 | [Ec]3 F3 | %22
w: Je- sus.|||||
w: Je- sus.|We|all can do some- thing for|Je- sus,|Some- thing,|
w: Je- sus.|||||
 [Fd]3 [FB]2 [DF] | [Fd][Fd][Fd] [Ge][Fd][Ec] | [GB]3 [EG]3 | [DF]3 [Fd]2 [DB] | %26
w: ||||
w: some- thing, We|all can do some- thing for|Je- sus,|Some- thing for|
w: ||||
 !fermata![Ec]3 [DB]3 |] %27
w: |
w: Je- sus.|
w: |
V:2
 x | x6 | x6 | x6 | x6 | x6 | x6 | x6 | x6 | x6 | x6 | x6 | x6 | x6 | x6 | x6 | x5 | x5 || x6 | %19
 x6 | x6 | x3 F3 | x6 | x6 | x6 | x6 | x6 |] %27
V:3
 [B,,F,] | [B,,B,][B,,B,][B,,B,] [B,,B,][B,,B,][B,,B,] | [E,G,][E,G,][E,B,] [E,B,]2 [E,B,] | %3
 [B,,B,][B,,F,][B,,F,] [B,,F,][C,F,][D,F,] | [F,B,]3 [F,A,]2 [B,,F,] | %5
 [B,,B,][B,,B,][B,,B,] [B,,B,][B,,B,][B,,B,] | [E,G,][E,G,][E,B,] [E,B,]2 [E,B,] | %7
 [B,,B,][B,,F,][B,,B,] [F,B,][F,B,][F,B,] | [F,A,]3 [B,,F,]2 [B,,F,] | %9
 F,[F,A,][F,A,] [F,A,][F,A,][F,A,] | [B,,B,][B,,B,][B,,B,] [B,,B,]2 [B,,B,] | %11
 [B,,B,E][B,,B,][B,,B,] [B,,B,][C,F,][B,,F,] | [F,B,][F,A,][F,A,] !fermata![F,A,]2 [B,,F,] | %13
 [B,,B,][B,,B,][B,,B,] [B,,B,][B,,B,][B,,B,] | [E,G,][E,G,][E,B,] [E,B,]2 [E,B,] | %15
 [B,,B,][B,,F,][B,,B,] [F,B,][F,B,][F,B,] | [F,A,]3 [B,,F,]2 | [B,,B,] x4 || %18
 [B,,B,][B,,B,][B,,B,] [B,,B,][B,,F,][B,,A,] | [B,,B,]3 [B,,D]3 | [F,A,]3 [F,C]3 | %21
 B,3 [B,,D]2 [B,,B,] | [B,,B,][B,,B,][B,,B,] [B,,B,][B,,B,][B,,B,] | [E,B,]3 [E,B,]3 | %24
 [F,B,]3 [F,B,]2 [F,B,] | F,3 [B,,F,]3 | x6 |] %27
V:4
 x | x6 | x6 | x6 | x6 | x6 | x6 | x6 | x6 | F, x5 | x6 | x6 | x6 | x6 | x6 | x6 | x5 | x5 || x6 | %19
 x6 | x6 | B,3 x3 | x6 | x6 | x6 | F,3 x3 | x6 |] %27

